src/assets/images/homepage/partner-3.svg

<svg width="166" height="40" viewBox="0 0 166 40" fill="none" xmlns="http://www.w3.org/2000/svg">
<g id="Vector">
<path d="M50.2242 27.8512H61.9539V24.3182H54.3932V11.0104H50.2242V27.8512Z" fill="#340E0E"/>
<path d="M68.9033 25.4958C67.231 25.4958 66.3595 24.0355 66.3595 21.845C66.3595 19.6545 67.231 18.1707 68.9033 18.1707C70.5756 18.1707 71.4707 19.6545 71.4707 21.845C71.4707 24.0355 70.5756 25.4958 68.9033 25.4958ZM68.9269 28.2281C72.8132 28.2281 75.357 25.4723 75.357 21.845C75.357 18.2178 72.8132 15.462 68.9269 15.462C65.0641 15.462 62.4732 18.2178 62.4732 21.845C62.4732 25.4723 65.0641 28.2281 68.9269 28.2281Z" fill="#340E0E"/>
<path d="M82.084 32.0202C83.8741 32.0202 85.4522 31.6198 86.5121 30.6776C87.4778 29.8062 88.1137 28.4872 88.1137 26.6735V15.7918H84.4394V17.0872H84.3923C83.6857 16.0744 82.6022 15.4384 81.0006 15.4384C78.0092 15.4384 75.9365 17.9351 75.9365 21.4682C75.9365 25.1661 78.4568 27.1917 81.1654 27.1917C82.6258 27.1917 83.5443 26.6029 84.251 25.802H84.3452V27.0033C84.3452 28.4636 83.6621 29.3115 82.0369 29.3115C80.765 29.3115 80.1291 28.7698 79.9171 28.1339H76.1956C76.5725 30.6541 78.763 32.0202 82.084 32.0202ZM82.0605 24.3417C80.6237 24.3417 79.6815 23.164 79.6815 21.3504C79.6815 19.5132 80.6237 18.3355 82.0605 18.3355C83.6621 18.3355 84.51 19.7017 84.51 21.3269C84.51 23.0227 83.7328 24.3417 82.0605 24.3417Z" fill="#340E0E"/>
<path d="M95.6689 25.4958C93.9966 25.4958 93.1251 24.0355 93.1251 21.845C93.1251 19.6545 93.9966 18.1707 95.6689 18.1707C97.3412 18.1707 98.2362 19.6545 98.2362 21.845C98.2362 24.0355 97.3412 25.4958 95.6689 25.4958ZM95.6924 28.2281C99.5788 28.2281 102.123 25.4723 102.123 21.845C102.123 18.2178 99.5788 15.462 95.6924 15.462C91.8296 15.462 89.2387 18.2178 89.2387 21.845C89.2387 25.4723 91.8296 28.2281 95.6924 28.2281Z" fill="#340E0E"/>
<path d="M103.243 27.8512H107.083V15.7918H103.243V27.8512ZM103.243 14.1194H107.083V11.0104H103.243V14.1194Z" fill="#340E0E"/>
<path d="M108.749 31.8318H112.588V26.6029H112.635C113.389 27.6157 114.496 28.2281 116.051 28.2281C119.207 28.2281 121.303 25.7314 121.303 21.8215C121.303 18.1942 119.348 15.4384 116.145 15.4384C114.496 15.4384 113.318 16.1686 112.494 17.2521H112.423V15.7918H108.749V31.8318ZM115.061 25.2603C113.413 25.2603 112.47 23.9178 112.47 21.9628C112.47 20.0079 113.318 18.524 114.991 18.524C116.639 18.524 117.417 19.8901 117.417 21.9628C117.417 24.012 116.522 25.2603 115.061 25.2603Z" fill="#340E0E"/>
<path d="M127.554 28.2281C130.71 28.2281 133.042 26.862 133.042 24.224C133.042 21.1384 130.545 20.5967 128.425 20.2434C126.894 19.9607 125.528 19.843 125.528 18.995C125.528 18.2413 126.258 17.888 127.2 17.888C128.26 17.888 128.99 18.2178 129.132 19.3012H132.665C132.476 16.9223 130.639 15.4384 127.224 15.4384C124.374 15.4384 122.019 16.7575 122.019 19.3012C122.019 22.1277 124.256 22.693 126.352 23.0463C127.954 23.3289 129.414 23.4467 129.414 24.5301C129.414 25.3074 128.684 25.7314 127.53 25.7314C126.258 25.7314 125.457 25.1425 125.316 23.9413H121.689C121.807 26.6029 124.021 28.2281 127.554 28.2281Z" fill="#340E0E"/>
<path d="M138.257 28.2045C139.929 28.2045 140.989 27.545 141.86 26.3673H141.931V27.8512H145.605V15.7918H141.766V22.5281C141.766 23.9649 140.965 24.9541 139.646 24.9541C138.422 24.9541 137.833 24.224 137.833 22.9049V15.7918H134.017V23.7058C134.017 26.3909 135.477 28.2045 138.257 28.2045Z" fill="#340E0E"/>
<path d="M147.275 27.8512H151.114V21.0913C151.114 19.6545 151.821 18.6417 153.022 18.6417C154.176 18.6417 154.718 19.3955 154.718 20.6909V27.8512H158.557V21.0913C158.557 19.6545 159.24 18.6417 160.465 18.6417C161.619 18.6417 162.161 19.3955 162.161 20.6909V27.8512H166V20.0079C166 17.2992 164.634 15.4384 161.902 15.4384C160.347 15.4384 159.052 16.0979 158.11 17.5583H158.062C157.45 16.2628 156.249 15.4384 154.671 15.4384C152.928 15.4384 151.774 16.2628 151.02 17.5112H150.949V15.7918H147.275V27.8512Z" fill="#340E0E"/>
<path fill-rule="evenodd" clip-rule="evenodd" d="M19.628 39.628C30.4683 39.628 39.2561 30.8403 39.2561 20C39.2561 9.15978 30.4683 0.372009 19.628 0.372009C8.78775 0.372009 0 9.15978 0 20C0 30.8403 8.78775 39.628 19.628 39.628ZM25.7513 9.51557C26.0493 8.45684 25.0219 7.83078 24.0836 8.49929L10.9849 17.8307C9.96732 18.5557 10.1274 20 11.2254 20H14.6746V19.9733H21.397L15.9195 21.906L13.5048 30.4845C13.2067 31.5432 14.2341 32.1693 15.1725 31.5007L28.2711 22.1694C29.2888 21.4444 29.1286 20 28.0307 20H22.8L25.7513 9.51557Z" fill="#F15757"/>
</g>
</svg>

<svg xmlns="http://www.w3.org/2000/svg" width="166" height="40" fill="none"><path fill="#340E0E" d="M50.224 27.851h11.73v-3.533h-7.56V11.01h-4.17zM68.903 25.496c-1.672 0-2.544-1.46-2.544-3.651s.872-3.674 2.544-3.674 2.568 1.483 2.568 3.674-.895 3.65-2.568 3.65m.024 2.732c3.886 0 6.43-2.756 6.43-6.383s-2.544-6.383-6.43-6.383c-3.863 0-6.454 2.756-6.454 6.383s2.591 6.383 6.454 6.383M82.084 32.02c1.79 0 3.368-.4 4.428-1.342.966-.872 1.602-2.19 1.602-4.004V15.792h-3.675v1.295h-.047c-.706-1.013-1.79-1.649-3.391-1.649-2.992 0-5.065 2.497-5.065 6.03 0 3.698 2.52 5.724 5.23 5.724 1.46 0 2.378-.59 3.085-1.39h.094v1.201c0 1.46-.683 2.308-2.308 2.308-1.272 0-1.908-.541-2.12-1.177h-3.721c.377 2.52 2.567 3.886 5.888 3.886m-.023-7.678c-1.437 0-2.38-1.178-2.38-2.992 0-1.837.943-3.015 2.38-3.015 1.601 0 2.449 1.367 2.449 2.992 0 1.696-.777 3.015-2.45 3.015M95.669 25.496c-1.672 0-2.544-1.46-2.544-3.651s.872-3.674 2.544-3.674 2.567 1.483 2.567 3.674-.895 3.65-2.567 3.65m.023 2.732c3.887 0 6.431-2.756 6.431-6.383s-2.544-6.383-6.43-6.383c-3.863 0-6.454 2.756-6.454 6.383s2.59 6.383 6.453 6.383M103.243 27.851h3.84v-12.06h-3.84zm0-13.732h3.84V11.01h-3.84zM108.749 31.832h3.839v-5.23h.047c.754 1.014 1.861 1.626 3.416 1.626 3.156 0 5.252-2.497 5.252-6.407 0-3.627-1.955-6.383-5.158-6.383-1.649 0-2.827.73-3.651 1.814h-.071v-1.46h-3.674zm6.312-6.572c-1.648 0-2.591-1.342-2.591-3.297s.848-3.439 2.521-3.439c1.648 0 2.426 1.366 2.426 3.439 0 2.049-.895 3.297-2.356 3.297M127.554 28.228c3.156 0 5.488-1.366 5.488-4.004 0-3.086-2.497-3.627-4.617-3.98-1.531-.283-2.897-.401-2.897-1.249 0-.754.73-1.107 1.672-1.107 1.06 0 1.79.33 1.932 1.413h3.533c-.189-2.379-2.026-3.863-5.441-3.863-2.85 0-5.205 1.32-5.205 3.863 0 2.827 2.237 3.392 4.333 3.745 1.602.283 3.062.4 3.062 1.484 0 .777-.73 1.201-1.884 1.201-1.272 0-2.073-.589-2.214-1.79h-3.627c.118 2.662 2.332 4.287 5.865 4.287M138.257 28.205c1.672 0 2.732-.66 3.603-1.838h.071v1.484h3.674v-12.06h-3.839v6.737c0 1.437-.801 2.426-2.12 2.426-1.224 0-1.813-.73-1.813-2.05v-7.112h-3.816v7.914c0 2.685 1.46 4.499 4.24 4.499M147.275 27.851h3.839v-6.76c0-1.437.707-2.45 1.908-2.45 1.154 0 1.696.755 1.696 2.05v7.16h3.839v-6.76c0-1.437.683-2.45 1.908-2.45 1.154 0 1.696.755 1.696 2.05v7.16H166v-7.843c0-2.709-1.366-4.57-4.098-4.57-1.555 0-2.85.66-3.792 2.12h-.048c-.612-1.295-1.813-2.12-3.391-2.12-1.743 0-2.897.825-3.651 2.073h-.071v-1.72h-3.674z"/><path fill="#F15757" fill-rule="evenodd" d="M19.628 39.628c10.84 0 19.628-8.788 19.628-19.628S30.468.372 19.628.372 0 9.16 0 20s8.788 19.628 19.628 19.628m6.123-30.112c.298-1.06-.73-1.685-1.667-1.017l-13.1 9.332c-1.017.725-.857 2.169.241 2.169h3.45v-.027h6.722l-5.477 1.933-2.415 8.579c-.298 1.058.73 1.684 1.667 1.016l13.1-9.332c1.017-.725.857-2.169-.241-2.169H22.8z" clip-rule="evenodd"/></svg>
